images/icons/v2/timer-50-12.svg

<svg height="12" viewBox="0 0 12 12" width="12" xmlns="http://www.w3.org/2000/svg"><path d="m3.445.575.513.888a5.008 5.008 0 0 0 -.866.5l-.513-.889a6.057 6.057 0 0 1 .866-.499zm4.108-.375a6 6 0 0 0 -2.053-.174v1.014a4.991 4.991 0 1 1 -4.33 3.666 4.961 4.961 0 0 1 .784-1.619l-.877-.507a6 6 0 1 0 6.476-2.38zm-1.178 5.15-3.714-1.566-.25.432 3.214 2.433a.75.75 0 1 0 .75-1.3z"/></svg>

<svg xmlns="http://www.w3.org/2000/svg" width="12" height="12" viewBox="0 0 12 12"><title>timer-50-12</title><path d="M3.445.575l.513.888a5.008,5.008,0,0,0-.866.5l-.513-.889A6.057,6.057,0,0,1,3.445.575ZM7.553.2A6,6,0,0,0,5.5.026V1.04A4.991,4.991,0,1,1,1.17,4.706a4.961,4.961,0,0,1,.784-1.619L1.077,2.58A6,6,0,1,0,7.553.2ZM6.375,5.35,2.661,3.784l-.25.432L5.625,6.649a.75.75,0,1,0,.75-1.3Z"/></svg>
